X:13632
%768
T:Arthur Darley's
T:The Swedish Jig
M:6/8
A:Ireland
R:Jig
K:Cmaj
c2d|:"C"cBA GAG|GFE "G"DCB,|"C"C2G c2d|efe "G"dcB|
"C"c2G c2d|efe "G"dcB|"C"c2G "F"AGF|"C"EDC "G"DCB,|
"C"CG,A, "G"B,CD|
%Error : Guitar chord name not properly closed
"C"CB,C " "
